X:1
T: Deskry Sheil
C:Alexander Walker
R:Reel
Q: 232
K:Em
M:4/4
L:1/8
|:D|B,E EF GF EB|AD FD dD FD|B,E EF GF Ee|dB AF BE ED|
B,E EF GF EB|AD FD dD FD|B,E EF GF Ee|dB AF BE EF|
Ee ef ge fd|eB dA BG AF|Ee ef ge fd|fb af e1/2e1/2e ef|
gb ge fa fd|ef eB dA FD|EB, EF GF GA|dB AF BE E:|
